X:1
T:Title
%%score { ( 1 3 ) | ( 2 4 ) }
L:1/8
M:3/4
K:F
V:1 treble nm="Grand Piano"
V:3 treble 
V:2 bass 
V:4 bass 
V:1
 z2 z2[Q:1/4=100] c2 | c3 A [CF][CEG] | [CFA]2 [Fc]2 [DFB]2 | [CFA]3 [A,CF] [B,CG][G,CE] | %4
 [A,CF]4 [CAc]2 | [CAc]3 [CFA] [CF][CEG] | A2 c2 A2 | G3 G A=B | [Ec]4 [Ac]2 | %9
 [Bd]3 [Ac] [GB][Bd] | [Ac]2 A2 c2 | B3 A GF | [Ec]4 [Gc]2 | f3 c AF | [FB]2 [Fc]2 [Fd]2 | %15
 [Fc]3 [FA] [EG]>F |[M:2/4] F4 |[M:1/4] G2 |[M:3/4] G4 z2 | [CFA]2 [CAc]2 A2 | z C C[FA] [GB][Bd] | %21
 [Bd]2 [Ac]2 [Gc]2 | [Af]3 c AF | [B,FB]2 [Fc]2 [Fd]2 | [Fc]3 [FA] [EG]>[A,F] |[M:2/4] [A,F]4 |] %26
V:2
 z2 z2 [F,A,F]2 | [F,A,F]3 [F,CF] A,,C, | F,2 [F,A,]2 B,,2 | C,3 C, C,C, | F,4 F,2 | F,3 F, A,,C, | %6
 [F,CF]2 [A,CF]2 [F,CF]2 | [G,CE]3 [G,E] [G,DF][G,DF] | [C,C]4 [C,C]2 | [C,C]3 [C,C] [C,C][C,C] | %10
 [F,C]2[K:treble] [F,CF]2 [A,CF]2 | [G,CE]3 [F,CF] [E,G,C][D,G,D] | [C,G,]4 [E,B,]2 | %13
 [F,A,F]3 C A,[A,,F,] | [D,B,]2 [C,A,]2 [B,,B,]2 | [C,A,]3 [C,C] [C,B,]>[F,A,] |[M:2/4] [F,A,]4 | %17
[M:1/4] E2 |[M:3/4] E4 z2 | F,2 F,2[K:treble] F2 | E4[K:bass] z2 | [F,C]2 [F,C]2 [E,C]2 | %22
 [F,C]3 C A,F, | D,2 [C,A,]2 [B,,B,]2 | [C,A,]3 [C,C] [C,B,]>[F,,F,] |[M:2/4] [F,,F,]4 |] %26
V:3
 x6 | x6 | x6 | x6 | x6 | x6 | x6 | x6 | x6 | x6 | x6 | x6 | x6 | x6 | x6 | x6 |[M:2/4] x4 | %17
[M:1/4] x2 |[M:3/4] z C C[CFA] [CGB][CEG] | x6 | G4 z2 | x6 | x6 | x6 | x6 |[M:2/4] x4 |] %26
V:4
 x6 | x6 | x6 | x6 | x6 | x6 | x6 | x6 | x6 | x6 | x2[K:treble] x4 | x6 | x6 | x6 | x6 | x6 | %16
[M:2/4] x4 |[M:1/4] x2 |[M:3/4] z C, C,C, C,C, | x4[K:treble] x2 | %20
 z[K:bass] C, C,[C,C] [C,C][E,C] | x6 | x6 | x6 | x6 |[M:2/4] x4 |] %26

